images/icon_burger.svg

<svg width="24" height="24" fill="none" xmlns="http://www.w3.org/2000/svg"><path fill-rule="evenodd" clip-rule="evenodd" d="M2.25 6c0-.41421.33579-.75.75-.75h18c.4142 0 .75.33579.75.75s-.3358.75-.75.75H3c-.41421 0-.75-.33579-.75-.75Zm0 6c0-.4142.33579-.75.75-.75h18c.4142 0 .75.3358.75.75s-.3358.75-.75.75H3c-.41421 0-.75-.3358-.75-.75ZM3 17.25c-.41421 0-.75.3358-.75.75s.33579.75.75.75h18c.4142 0 .75-.3358.75-.75s-.3358-.75-.75-.75H3Z" fill="#172026"/></svg>

<svg width="24" height="24" viewBox="0 0 24 24" fill="none" xmlns="http://www.w3.org/2000/svg">
<path fill-rule="evenodd" clip-rule="evenodd" d="M2.25 6C2.25 5.58579 2.58579 5.25 3 5.25H21C21.4142 5.25 21.75 5.58579 21.75 6C21.75 6.41421 21.4142 6.75 21 6.75H3C2.58579 6.75 2.25 6.41421 2.25 6ZM2.25 12C2.25 11.5858 2.58579 11.25 3 11.25H21C21.4142 11.25 21.75 11.5858 21.75 12C21.75 12.4142 21.4142 12.75 21 12.75H3C2.58579 12.75 2.25 12.4142 2.25 12ZM3 17.25C2.58579 17.25 2.25 17.5858 2.25 18C2.25 18.4142 2.58579 18.75 3 18.75H21C21.4142 18.75 21.75 18.4142 21.75 18C21.75 17.5858 21.4142 17.25 21 17.25H3Z" fill="#172026"/>
</svg>
